X:2766
T:Catherine
R:mazurka
A:Aquitaine
O:France
M:3/4
L:1/8
Q:1/4=160
K:C
cd|e2d2g2|e4|cd|e2d2g2|e4|:fe|d2d2 ed|c2c2 dc|B2A2B2|1c4:|2c6|
|:c2 BAG2|d2d4|c2 BA G2|e2e4|c2 BA G2|d2d4|g2 gf e2|1d2e2c2:|2d2c4||


